X:207
T: ES GEHT EIN GROSSER RUNDGESANG
N: K2619
O: Europa, Mitteleuropa, Deutschland, Kassel
R: Kinder - Lied, Gesellschafts - Spiel
M: 2/4
L: 1/16
K: F
C2 | F2F2c2c2 | A3AF2
F2 | G2G2C2C2 | F4z4 |
G2G2G2G2 | A2c2c2
G2 | G2G2G2G2 | A2c2c2
C2 | F2F2c2c2 | A3GF2
F2 | G2G2C2C2 | F4z2

@@@ Tune index: 7544
